!!!!SEGMENT: pl-kk--kk-i-3--017_anonim--tractus-ad-officium-in-sabbatho-ave-maria.krn
!!!cenid: 15xx:624
!!!COM: Anonim
!!!COM-rismID: pe30004985
!!!CDT:
!!!CNT:
!!!OTL: Tractus ad Officium in Sabbatho/Ave Maria
!!!PDT:
!!!AGN:
!!!SMS-siglum: PL-Kk
!!!SMS-shelfmark: Kk.I.3
!!!SMS-shelfwork: 017 W
!!!SMS-variant: Tenor: PL-Kk:Kk.I.3:0224
!!!SMS-altvar: Tenor: PL-Kk:Kk.I.3:0373
!!!NIFC-rismSourceID: 1001145493
!!!NIFC-rismChildID: 1001145493
!!!NIFC-islandoraID: pl-kk:1170
!!!URL-pdf-islandora: https://repozytorium.nifc.pl/islandora/object/pl-kk%3A1170/datastream/PDF/view
!!!URL-scan: https://polish.musicsources.pl/pl/lokalizacje/galeria/rekopisy/5919 @EN{Scan on Polish Music Sources Website} @PL{Skany w portalu Dziedzictwo Muzyki Polskiej w otwartym dostępie}
!!!IIIF:
!!!ONB-nifc: UWAGA: Discantus (s. 73v-76r, skan 0076-0078), Tenor (s. 51v-53v, skan 0224-0226), Bassus (s. 67v-72r, skan 0372-0375; na ścinku dopisano tekst opuszczony na 70r (3 systemy))
!!!AIN: 1 alto 1 bass 1 tenor
!!!key:
**kern	**text	**kern	**text	**kern	**text
*part3	*part3	*part2	*part2	*part1	*part1
*staff3	*staff3	*staff2	*staff2	*staff1	*staff1
*I"Bassus	*	*I"Tenor	*	*I"Discantus	*
*I'B	*	*I'T	*	*I'A	*
*Ibass	*	*Itenor	*	*Ialto	*
*ICvox	*	*ICvox	*	*ICvox	*
*clefF4	*	*clefF4	*	*clefC4	*
*k[]	*	*k[]	*	*k[]	*
*C:	*	*C:	*	*C:	*
=1-	=1-	=1-	=1-	=1-	=1-
1D	A-	1D	A-	0A	A-
*	*	*lig	*	*	*
1AA	-ve	1C	-ve	.	.
=2-	=2-	=2-	=2-	=2-	=2-
*lig	*	*	*	*	*
1D	.	1D	.	2A/	-ve
.	.	.	.	2B/	.
*	*	*Xlig	*	*	*
*	*	*lig	*	*	*
1E	.	1C	.	1c	.
*Xlig	*	*	*	*	*
=3-	=3-	=3-	=3-	=3-	=3-
1C	.	1AA	.	2c/	.
.	.	.	.	2A/	.
*	*	*Xlig	*	*	*
*	*	*lig	*	*	*
2C/	.	1C	.	2G/	.
2AA/	.	.	.	1c\	.
=4-	=4-	=4-	=4-	=4-	=4-
*lig	*	*	*	*	*
1GG	.	1D	.	.	.
.	.	.	.	2B/	.
*	*	*Xlig	*	*	*
*	*	*lig	*	*	*
1AA	.	1C	.	1c	.
*Xlig	*	*	*	*	*
=5-	=5-	=5-	=5-	=5-	=5-
*lig	*	*	*	*	*
*	*	*	*	*custos:A	*
1GG	.	1D	.	1B	.
*	*	*Xlig	*	*	*
!	!	!	!	!LO:LB:g=original	!
*	*	*lig	*	*	*
1FF	.	1F	.	1A	.
*Xlig	*	*	*	*	*
=6-	=6-	=6-	=6-	=6-	=6-
*custos:GG	*	*	*	*	*
2FF/	.	1D	.	2A/	.
!LO:LB:g=original	!	!	!	!	!
2GG/	.	.	.	1B	.
*	*	*Xlig	*	*	*
*	*	*lig	*	*	*
1AA	.	1C	.	.	.
.	.	.	.	1A\	.
=7-	=7-	=7-	=7-	=7-	=7-
1BB	.	1D	.	.	.
.	.	.	.	2G/	.
*	*	*Xlig	*	*	*
*	*	*lig	*	*	*
1AA	.	1C	.	0A	.
=8-	=8-	=8-	=8-	=8-	=8-
*lig	*	*	*	*	*
*	*	*custos:F	*	*	*
1A	.	1D	.	.	.
*	*	*Xlig	*	*	*
!	!	!LO:LB:g=original	!	!	!
*	*	*lig	*	*	*
1D	.	1F	.	1A	.
*Xlig	*	*	*	*	*
=9-	=9-	=9-	=9-	=9-	=9-
2D/	.	1D	.	2A/	.
1F\	.	.	.	2B/	.
*	*	*Xlig	*	*	*
*	*	*lig	*	*	*
.	.	1C	.	1c	.
2E/	.	.	.	.	.
=10-	=10-	=10-	=10-	=10-	=10-
1F	.	1D	.	0A	.
*	*	*Xlig	*	*	*
0D	.	0F	.	.	.
=11-	=11-	=11-	=11-	=11-	=11-
.	.	.	.	2A/	.
.	.	.	.	1d	.
*	*	*lig	*	*	*
1AA	.	1E	.	.	.
.	.	.	.	2c/	.
=12-	=12-	=12-	=12-	=12-	=12-
1BB	.	1D	.	1d	.
*	*	*Xlig	*	*	*
*	*	*lig	*	*2\right	*
*	*	*	*	*custos:c	*
2BB/	.	1F	.	2d\	.
!	!	!	!	!LO:LB:g=original	!
2AA/	.	.	.	1c\	.
=13-	=13-	=13-	=13-	=13-	=13-
*custos:AA	*	*	*	*	*
1GG	.	1D	.	.	.
.	.	.	.	2B/	.
*	*	*Xlig	*	*	*
!LO:LB:g=original	!	!	!	!	!
*	*	*lig	*	*	*
1AA	.	1C	.	1c	.
=14-	=14-	=14-	=14-	=14-	=14-
1GG	.	1D	.	1B	.
*	*	*Xlig	*	*	*
1D	.	0F	.	0A	.
=15-	=15-	=15-	=15-	=15-	=15-
2D/	.	.	.	.	.
1D	.	.	.	.	.
*	*	*lig	*	*	*
.	.	1E	.	1A	.
2C/	.	.	.	.	.
=16-	=16-	=16-	=16-	=16-	=16-
1D	.	1D	.	1F	.
*	*	*Xlig	*	*	*
*	*	*lig	*	*	*
1D	.	1F	.	1A	Ma-
=17-	=17-	=17-	=17-	=17-	=17-
2D/	.	1D	.	2A/	-ri-
1F	.	.	.	2B/	.
*	*	*Xlig	*	*	*
.	.	1C	Ma-	1c	.
2E/	.	.	.	.	.
=18-	=18-	=18-	=18-	=18-	=18-
*lig	*	*lig	*	*	*
1D	Ma-	1D	.	1A	.
!	!	!	!	!LO:SIC:v:s=1B-	!
1BB-	.	1F	.	1B	.
*Xlig	*	*Xlig	*	*	*
=19-	=19-	=19-	=19-	=19-	=19-
*	*	*custos:E	*	*	*
1D	.	1F	-ri-	2A/	.
.	.	.	.	1d	.
*custos:A	*	*	*	*	*
!	!	!LO:LB:g=original	!	!	!
*	*	*lig	*	*	*
1AA	-ri-	1E	.	.	.
*	*	*	*	*custos:d	*
.	.	.	.	2c/	.
!LO:LB:g=original	!	!	!	!LO:LB:g=original	!
=20-	=20-	=20-	=20-	=20-	=20-
1A	.	1D	.	1d	.
*	*	*Xlig	*	*	*
*2\right	*	*lig	*	*	*
2A\	.	1D	-a	1f	.
2F/	.	.	.	.	.
=21-	=21-	=21-	=21-	=21-	=21-
1G	a	1C	.	1e	.
*	*	*Xlig	*	*	*
1F	.	1D	.	1d	.
=22-	=22-	=22-	=22-	=22-	=22-
1G	.	0E	.	2c/	.
.	.	.	.	1d	.
1G	.	.	.	.	.
.	.	.	.	2c/	.
=23-	=23-	=23-	=23-	=23-	=23-
2A\	.	1D	.	1d	.
1D	.	.	.	.	.
.	.	1E	.	2B/	.
2C/	.	.	.	2c/	.
=24-	=24-	=24-	=24-	=24-	=24-
1D	.	1F	.	2A/	.
.	.	.	.	1d	.
*	*	*lig	*	*	*
2GG/	.	1G	.	.	.
2C/	.	.	.	1c\	.
=25-	=25-	=25-	=25-	=25-	=25-
*lig	*	*	*	*	*
1D	.	1D	.	.	.
.	.	.	.	2B/	.
*	*	*Xlig	*	*	*
*custos:C	*	*	*	*custos:c	*
1E	.	1C	.	1c	-a
*Xlig	*	*	*	*	*
!LO:LB:g=original	!	!	!	!LO:LB:g=original	!
=26-	=26-	=26-	=26-	=26-	=26-
*lig	*	*lig	*	*lig	*
1C	gra-	1E	gra-	1c	gra-
1D	.	1F	.	1A	.
*Xlig	*	*Xlig	*	*Xlig	*
=27-	=27-	=27-	=27-	=27-	=27-
0GG	-ti-	1D	-ti-	1B	-ti-
.	.	1D	-a	1G	-a
=28-	=28-	=28-	=28-	=28-	=28-
*lig	*	*lig	*	*	*
1BBny	-a	1D	ple-	2F/	ple-
.	.	.	.	2G/	.
*	*	*custos:D	*	*	*
1AA	.	1C	.	2A/	.
.	.	.	.	1c\	.
*Xlig	*	*Xlig	*	*	*
!	!	!LO:LB:g=original	!	!	!
=29-	=29-	=29-	=29-	=29-	=29-
*	*	*lig	*	*	*
1GG	ple-	1D	.	.	.
.	.	.	.	2B/	.
2FF/	.	1F	.	1c	.
1F\	.	.	.	.	.
*	*	*Xlig	*	*	*
=30-	=30-	=30-	=30-	=30-	=30-
*	*	*lig	*	*	*
.	.	1G	.	1c	.
2E/	.	.	.	.	.
1F	-na	1F	.	2c/	na
.	.	.	.	1d\	.
*	*	*Xlig	*	*	*
=31-	=31-	=31-	=31-	=31-	=31-
*	*	*lig	*	*	*
1C	.	1E	.	.	.
.	.	.	.	1c	.
1D	.	1F	.	.	.
.	.	.	.	2B/	.
*	*	*Xlig	*	*	*
=32-	=32-	=32-	=32-	=32-	=32-
*lig	*	*	*	*	*
1C	.	1G	.	1c	.
*	*	*	*	*custos:A	*
1FF	.	1F	-na	1A	.
*Xlig	*	*	*	*	*
!	!	!	!	!LO:PB:g=original	!
=33-	=33-	=33-	=33-	=33-	=33-
*lig	*	*lig	*	*	*
1AA	do-	1C	do-	2A/	do-
.	.	.	.	2F/	.
1GG	.	1D	.	1G	.
*Xlig	*	*Xlig	*	*	*
=34-	=34-	=34-	=34-	=34-	=34-
*custos:D	*	*	*	*	*
1AA	-mi-	1C	-mi-	2E/	-mi-
.	.	.	.	1A	.
!LO:LB:g=original	!	!	!	!	!
*lig	*	*	*	*	*
1D	.	1F	.	.	.
.	.	.	.	2B/	.
=35-	=35-	=35-	=35-	=35-	=35-
1C	.	1E	-nvs	2G/	.
.	.	.	.	1c	.
*Xlig	*	*	*	*	*
1D	-nvs	1F	.	.	.
.	.	.	.	2B/	.
=36-	=36-	=36-	=36-	=36-	=36-
*lig	*	*lig	*	*	*
1C	.	1G	.	1c	.
1FF	.	1F	.	1A	-nus
*Xlig	*	*Xlig	*	*	*
=37-	=37-	=37-	=37-	=37-	=37-
1BB	.	0F	te-	0d	te-
2BB/	te-	.	.	.	.
2D/	.	.	.	.	.
=38-	=38-	=38-	=38-	=38-	=38-
*	*	*custos:D	*	*	*
1AA	-cum	1E	.	1c	.
!	!	!LO:LB:g=original	!	!	!
1BB	.	1D	.	1f	.
=39-	=39-	=39-	=39-	=39-	=39-
*lig	*	*	*	*	*
1BB	.	1D	-cum	2f\	.
*	*	*	*	*custos:c	*
.	.	.	.	1d	.
1AA	.	1E	.	.	.
!	!	!	!	!LO:LB:g=original	!
.	.	.	.	2c/	.
*Xlig	*	*	*	*	*
=40-	=40-	=40-	=40-	=40-	=40-
1D	.	1F	.	1d	.
2D/	.	[1D;l	.	2A/	.
2GG/	.	.	.	2B/	.
=41-	=41-	=41-	=41-	=41-	=41-
0D;l	.	0D]	.	0A;<l	-cum
!LO:PB:g=original	!	!	!	!	!
=42||	=42||	=42||	=42||	=42||	=42||
!LO:TX:a:t=Benedicta\ntu\nobmvtescit	!	!	!	!	!
0ryy	.	1C	Be-	1c	Be-
.	.	1D	-ne-	2B/	-ne-
.	.	.	.	1A\	.
=43-	=43-	=43-	=43-	=43-	=43-
*	*	*lig	*	*	*
0ryy	.	1F	-di-	.	.
.	.	.	.	1d	.
.	.	1G	.	.	.
.	.	.	.	2e\	-dic-
*	*	*Xlig	*	*	*
=44-	=44-	=44-	=44-	=44-	=44-
0ryy	.	1D	-cta	2f\	-ta
.	.	.	.	2d/	tv
*	*	*lig	*	*	*
*	*	*	*	*custos:f	*
.	.	1F	tu	2c/	.
!	!	!	!	!LO:LB:g=original	!
.	.	.	.	1f\	.
=45-	=45-	=45-	=45-	=45-	=45-
*	*	*custos:F	*	*	*
0ryy	.	1G	.	.	.
.	.	.	.	2e\	.
*	*	*Xlig	*	*	*
!	!	!LO:PB:g=original	!	!	!
.	.	0F	.	1f	.
=46-	=46-	=46-	=46-	=46-	=46-
0ryy	.	.	.	2c/	.
.	.	.	.	1d	.
.	.	1E	.	.	.
.	.	.	.	2c/	.
=47-	=47-	=47-	=47-	=47-	=47-
0ryy	.	1D	.	1d	.
*	*	*lig	*	*	*
.	.	1F	.	1c	.
=48-	=48-	=48-	=48-	=48-	=48-
0ryy	.	1D	.	1B	.
*	*	*Xlig	*	*	*
.	.	1D	in	2A/	in
.	.	.	.	2B/	.
=49-	=49-	=49-	=49-	=49-	=49-
0ryy	.	1D	mu-	2A/	mu-
.	.	.	.	1d	.
.	.	1G	-li-	.	.
.	.	.	.	2e\	-li-
=50-	=50-	=50-	=50-	=50-	=50-
*	*	*lig	*	*	*
0ryy	.	1F	-e-	2c/	-e-
*	*	*	*	*custos:c	*
.	.	.	.	1d	.
.	.	1E	.	.	.
!	!	!	!	!LO:LB:g=original	!
.	.	.	.	1c\	-ri-
*	*	*Xlig	*	*	*
=51-	=51-	=51-	=51-	=51-	=51-
*	*	*lig	*	*	*
0ryy	.	1D	-ri-	.	.
.	.	.	.	2B/	.
.	.	1C	.	1c	.
*	*	*Xlig	*	*	*
=52-	=52-	=52-	=52-	=52-	=52-
*	*	*lig	*	*	*
0ryy	.	1C	-bus	1c	.
.	.	1D	.	1B	.
*	*	*Xlig	*	*	*
=53-	=53-	=53-	=53-	=53-	=53-
0ryy	.	0E	.	2G/	.
.	.	.	.	1c	-bus
.	.	.	.	2c/	.
=54-	=54-	=54-	=54-	=54-	=54-
*	*	*lig	*	*	*
0ryy	.	1D	.	1A	.
.	.	1E	.	1G	.
*	*	*Xlig	*	*	*
=55-	=55-	=55-	=55-	=55-	=55-
*	*	*lig	*	*	*
0ryy	.	1F	.	2F/	.
.	.	.	.	2D/	.
*	*	*custos:D	*	*	*
.	.	1G	.	2E/	.
.	.	.	.	2C/	.
*	*	*Xlig	*	*	*
!	!	!LO:LB:g=original	!	!	!
=56-	=56-	=56-	=56-	=56-	=56-
*	*	*lig	*	*	*
0ryy	.	1D	.	1D	.
.	.	1C	.	1E	.
*	*	*Xlig	*	*	*
=57-	=57-	=57-	=57-	=57-	=57-
*	*	*	*	*custos:c	*
0ryy	.	1C	et	2C/	et
!	!	!	!	!LO:LB:g=original	!
.	.	.	.	2c/	.
*	*	*lig	*	*	*
.	.	1E	be-	1B	.
=58-	=58-	=58-	=58-	=58-	=58-
0ryy	.	1F	.	2A/	be-
.	.	.	.	1d	-ne-
*	*	*Xlig	*	*	*
.	.	1D	-ne-	.	.
.	.	.	.	1c\	.
=59-	=59-	=59-	=59-	=59-	=59-
*	*	*lig	*	*	*
0ryy	.	1D	-di-	.	.
.	.	.	.	2B/	.
.	.	1C	.	1c	.
*	*	*Xlig	*	*	*
=60-	=60-	=60-	=60-	=60-	=60-
0ryy	.	1D	.	1A	.
*	*	*lig	*	*lig	*
.	.	1F	.	1A	-di-
=61-	=61-	=61-	=61-	=61-	=61-
0ryy	.	1G	.	1c	.
*	*	*Xlig	*	*Xlig	*
*	*	*lig	*	*	*
.	.	1F	-ctus	1A	.
=62-	=62-	=62-	=62-	=62-	=62-
0ryy	.	1E	.	1G	.
*	*	*Xlig	*	*	*
.	.	1F	.	2F/	.
.	.	.	.	1f\	.
=63-	=63-	=63-	=63-	=63-	=63-
*	*	*lig	*	*	*
0ryy	.	1G	.	.	.
.	.	.	.	2e\	.
.	.	1F	.	1f	-ctus
*	*	*Xlig	*	*	*
=64-	=64-	=64-	=64-	=64-	=64-
*	*	*	*	*custos:e	*
0ryy	.	0G	fru-	0d	fru-
!	!	!	!	!LO:PB:g=original	!
=65-	=65-	=65-	=65-	=65-	=65-
0ryy	.	0C	-ctus	0e	-ctus
=66-	=66-	=66-	=66-	=66-	=66-
*	*	*lig	*	*	*
0ryy	.	1D	ven-	1d	ven-
*	*	*custos:E	*	*	*
.	.	1F	.	1c	.
*	*	*Xlig	*	*	*
!	!	!LO:LB:g=original	!	!	!
=67-	=67-	=67-	=67-	=67-	=67-
*	*	*lig	*	*	*
0ryy	.	1E	-tris	2c/	.
.	.	.	.	2B/	.
.	.	1F	.	2A/	-tris
.	.	.	.	1d\	.
*	*	*Xlig	*	*	*
=68-	=68-	=68-	=68-	=68-	=68-
*	*	*lig	*	*	*
0ryy	.	1G	.	.	.
.	.	.	.	2c/	.
.	.	1F	.	1d	.
*	*	*Xlig	*	*	*
=69-	=69-	=69-	=69-	=69-	=69-
0ryy	.	1G	.	2B/	.
.	.	.	.	2G/	tu-
.	.	1D	tu-	2A/	.
.	.	.	.	2B/	.
=70-	=70-	=70-	=70-	=70-	=70-
0ryy	.	1D	-i	2A/	.
.	.	.	.	1d	.
.	.	1E	.	.	.
.	.	.	.	2c/	.
=71-	=71-	=71-	=71-	=71-	=71-
*	*	*	*	*custos:f	*
0ryy	.	1F	.	0d;<l	-i
.	.	1D;l	.	.	.
!	!	!	!	!LO:LB:g=original	!
=72||	=72||	=72||	=72||	=72||	=72||
*clefF3	*	*	*	*	*
!	!	!	!	!LO:TX:a:t=Qvomodo\nfiet istud\n tacet	!
1A	Qvo-	1D	Quo-	0ryy	.
2B\	-mo	1D	-mo-	.	.
1A\	.	.	.	.	.
=73-	=73-	=73-	=73-	=73-	=73-
*	*	*lig	*	*	*
.	.	1F	.	0ryy	.
2F/	.	.	.	.	.
1G	.	1E	.	.	.
*	*	*Xlig	*	*	*
=74-	=74-	=74-	=74-	=74-	=74-
*	*	*custos:G	*	*	*
2D/	.	1F	.	0ryy	.
2F/	.	.	.	.	.
!	!	!LO:LB:g=original	!	!	!
*	*	*lig	*	*	*
1E	.	1G	.	.	.
=75-	=75-	=75-	=75-	=75-	=75-
1D	.	1A	.	0ryy	.
*	*	*Xlig	*	*	*
*custos:D	*	*	*	*	*
2BB-X/	.	1D	do	.	.
!LO:LB:g=original	!	!	!	!	!
*clefF4	*	*	*	*	*
1D\	.	.	.	.	.
=76-	=76-	=76-	=76-	=76-	=76-
.	.	1F	fi-	0ryy	.
2AA/	.	.	.	.	.
2BBny/	fi-	1F	-et	.	.
2AA/	-et	.	.	.	.
=77-	=77-	=77-	=77-	=77-	=77-
*	*	*lig	*	*	*
1GG	.	1G	.	0ryy	.
1FF	.	1A	.	.	.
*	*	*Xlig	*	*	*
=78-	=78-	=78-	=78-	=78-	=78-
*	*	*lig	*	*	*
2FF/	.	1A	i-	0ryy	.
1F	i-	.	.	.	.
.	.	1G	.	.	.
2E/	.	.	.	.	.
*	*	*Xlig	*	*	*
=79-	=79-	=79-	=79-	=79-	=79-
2F/	.	0F	.	0ryy	.
2D/	.	.	.	.	.
1A	.	.	.	.	.
=80-	=80-	=80-	=80-	=80-	=80-
1G	.	1E	.	0ryy	.
*	*	*lig	*	*	*
2F/	.	1D	.	.	.
1D\	.	.	.	.	.
=81-	=81-	=81-	=81-	=81-	=81-
.	.	1E	.	0ryy	.
*custos:D	*	*	*	*	*
2C/	-stud	.	.	.	.
*	*	*Xlig	*	*	*
!LO:LB:g=original	!	!	!	!	!
*	*	*lig	*	*	*
1D	.	1F	-stud	.	.
=82-	=82-	=82-	=82-	=82-	=82-
2BB-X/	qvo-	1D	.	0ryy	.
2GG/	-ni-	.	.	.	.
*	*	*Xlig	*	*	*
*	*	*lig	*	*	*
1BB-	.	1D	quo-	.	.
=83-	=83-	=83-	=83-	=83-	=83-
2FF/	.	1F	.	0ryy	.
1F	.	.	.	.	.
*	*	*Xlig	*	*	*
*	*	*custos:D	*	*	*
.	.	1D	-ni-	.	.
!LO:TX:t=P:global:problem=oddech jako rozdzielacz słów	!	!	!	!	!
2D,</	-am	.	.	.	.
!	!	!LO:LB:g=original	!	!	!
=84-	=84-	=84-	=84-	=84-	=84-
1A	vi-	1D	-am	0ryy	.
2F/	.	1D	vi-	.	.
1B\	-rum	.	.	.	.
=85-	=85-	=85-	=85-	=85-	=85-
.	.	1F	.	0ryy	.
2A\	.	.	.	.	.
2B\	non	1D	-ru(m)	.	.
2A\	.	.	.	.	.
=86-	=86-	=86-	=86-	=86-	=86-
2B\	co-	1D	non	0ryy	.
*custos:G	*	*	*	*	*
1A	.	.	.	.	.
*	*	*lig	*	*	*
.	.	1G	co-	.	.
!LO:PB:g=original	!	!	!	!	!
*clefF3	*	*	*	*	*
1G\	-gno-	.	.	.	.
=87-	=87-	=87-	=87-	=87-	=87-
.	.	1A	.	0ryy	.
2F/	.	.	.	.	.
*	*	*Xlig	*	*	*
*	*	*lig	*	*	*
1G	.	1G	-gno-	.	.
=88-	=88-	=88-	=88-	=88-	=88-
1B	.	1D	.	0ryy	.
*	*	*Xlig	*	*	*
1A	.	1F	.	.	.
=89-	=89-	=89-	=89-	=89-	=89-
*	*	*lig	*	*	*
1G	.	1E	.	0ryy	.
1B	.	1D	.	.	.
*	*	*Xlig	*	*	*
=90-	=90-	=90-	=90-	=90-	=90-
*	*	*lig	*	*	*
2A/	.	1A	.	0ryy	.
1F	.	.	.	.	.
.	.	1G	.	.	.
2E/	.	.	.	.	.
*	*	*Xlig	*	*	*
=91-	=91-	=91-	=91-	=91-	=91-
2F/	.	0F	.	0ryy	.
2D/	.	.	.	.	.
1F	.	.	.	.	.
=92-	=92-	=92-	=92-	=92-	=92-
*custos:c	*	*	*	*	*
*	*	*lig	*	*	*
2C/	.	1E	.	0ryy	.
!LO:LB:g=original	!	!	!	!	!
1c	.	.	.	.	.
.	.	1D	.	.	.
4B\	.	.	.	.	.
4A\	.	.	.	.	.
*	*	*Xlig	*	*	*
=93-	=93-	=93-	=93-	=93-	=93-
*	*	*lig	*	*	*
1B	-sco	1D	-sco	0ryy	.
*	*	*custos:E	*	*	*
1c	.	1C	.	.	.
*	*	*Xlig	*	*	*
!	!	!LO:PB:g=original	!	!	!
=94-	=94-	=94-	=94-	=94-	=94-
1G	.	0E	.	0ryy	.
2G/	.	.	.	.	.
2E/	.	.	.	.	.
=95-	=95-	=95-	=95-	=95-	=95-
*	*	*lig	*	*	*
2F/	.	1D	.	0ryy	.
1A	.	.	.	.	.
.	.	1E	.	.	.
2G/	.	.	.	.	.
*	*	*Xlig	*	*	*
=96-	=96-	=96-	=96-	=96-	=96-
*	*	*lig	*	*	*
2A/	.	1F	.	0ryy	.
1d	.	.	.	.	.
.	.	1G	.	.	.
1c\	.	.	.	.	.
*	*	*Xlig	*	*	*
=97-	=97-	=97-	=97-	=97-	=97-
*	*	*lig	*	*	*
.	.	1D	.	0ryy	.
2B/	.	.	.	.	.
*custos:c	*	*	*	*	*
1c	.	1C	.	.	.
*	*	*Xlig	*	*	*
!LO:LB:g=original	!	!	!	!	!
=98-	=98-	=98-	=98-	=98-	=98-
*clefF4	*	*	*	*	*
1c	et	1C	et	0ryy	.
2G\	re-	1C	re-	.	.
2A\	.	.	.	.	.
=99-	=99-	=99-	=99-	=99-	=99-
*	*	*lig	*	*	*
1G	-spon-	1E	-spon-	0ryy	.
1A	.	1F	.	.	.
*	*	*Xlig	*	*	*
=100-	=100-	=100-	=100-	=100-	=100-
1F	-dens	1D	-dens	0ryy	.
*	*	*lig	*	*	*
2F/	an-	1D	an-	.	.
2D/	.	.	.	.	.
=101-	=101-	=101-	=101-	=101-	=101-
1E	.	1C	.	0ryy	.
*	*	*Xlig	*	*	*
1D	.	1D	.	.	.
=102-	=102-	=102-	=102-	=102-	=102-
*	*	*lig	*	*	*
2D/	.	1F	.	0ryy	.
1F	.	.	.	.	.
.	.	1G	.	.	.
2E/	-ge-	.	.	.	.
*	*	*Xlig	*	*	*
=103-	=103-	=103-	=103-	=103-	=103-
*	*	*lig	*	*	*
*custos:C	*	*	*	*	*
1F	.	1F	-ge-	0ryy	.
*	*	*custos:F	*	*	*
!LO:LB:g=original	!	!	!	!	!
1C	.	1G	.	.	.
*	*	*Xlig	*	*	*
!	!	!LO:LB:g=original	!	!	!
=104-	=104-	=104-	=104-	=104-	=104-
*	*	*lig	*	*	*
1D	-lvs	1F	-lus	0ryy	.
1C	.	1E	.	.	.
*	*	*Xlig	*	*	*
=105-	=105-	=105-	=105-	=105-	=105-
2FF/	.	1F	.	0ryy	.
1F	.	.	.	.	.
*	*	*lig	*	*	*
.	.	1G	.	.	.
2E/	.	.	.	.	.
=106-	=106-	=106-	=106-	=106-	=106-
2F/	.	1F	.	0ryy	.
1A	in	.	.	.	.
*	*	*Xlig	*	*	*
.	.	1C	in	.	.
2G\	tu-	.	.	.	.
=107-	=107-	=107-	=107-	=107-	=107-
2B\	.	1D	.	0ryy	.
1A	.	.	.	.	.
.	.	1C	tvl-	.	.
2G\	.	.	.	.	.
=108-	=108-	=108-	=108-	=108-	=108-
2A\	.	1F	.	0ryy	.
2F/	-lit	.	.	.	.
1G	.	1E	-lit	.	.
=109-	=109-	=109-	=109-	=109-	=109-
*custos:C	*	*	*	*	*
1D	di-	1F	.	0ryy	.
!LO:LB:g=original	!	!	!	!	!
*	*	*lig	*	*	*
1C	.	1G	.	.	.
=110-	=110-	=110-	=110-	=110-	=110-
2AA/	.	1F	.	0ryy	.
1BBny	-cens	.	.	.	.
*	*	*Xlig	*	*	*
.	.	0F	di-	.	.
2FF/	.	.	.	.	.
=111-	=111-	=111-	=111-	=111-	=111-
2AA/	.	.	.	0ryy	.
2BB/	.	.	.	.	.
*	*	*lig	*	*	*
2GG/	.	1E	.	.	.
1G\	.	.	.	.	.
=112-	=112-	=112-	=112-	=112-	=112-
.	.	1D	.	0ryy	.
1F	.	.	.	.	.
*	*	*Xlig	*	*	*
*	*	*lig	*	*	*
.	.	1D	-cens	.	.
1D\	.	.	.	.	.
=113-	=113-	=113-	=113-	=113-	=113-
*	*	*custos:F	*	*	*
.	.	1E	.	0ryy	.
2C/	.	.	.	.	.
*	*	*Xlig	*	*	*
!	!	!LO:LB:g=original	!	!	!
*	*	*clefF3	*	*	*
1D	.	0F	.	.	.
=114-	=114-	=114-	=114-	=114-	=114-
2D/	.	.	.	0ryy	.
1BB	.	.	.	.	.
.	.	[1D;<l	.	.	.
2GG/	.	.	.	.	.
=115-	=115-	=115-	=115-	=115-	=115-
*custos:F	*	*	*	*	*
0D;l	.	0D]	.	0ryy	.
!LO:PB:g=original	!	!	!	!	!
=116||	=116||	=116||	=116||	=116||	=116||
*	*	*lig	*	*	*
1F	Spi-	1F	Spi-	1f	Spi-
2C/	.	1G	.	2e\	-ri-
1G\	-ri-	.	.	2d\	.
*	*	*Xlig	*	*	*
=117-	=117-	=117-	=117-	=117-	=117-
.	.	1A	-ri-	2c/	.
1F	-tvs	.	.	2A/	.
*	*	*lig	*	*	*
.	.	1G	-tvs	1B	-tus
2E/	.	.	.	.	.
=118-	=118-	=118-	=118-	=118-	=118-
1F	.	1F	.	2A/	.
.	.	.	.	1F	.
*	*	*Xlig	*	*	*
1C	san-	1G	san-	.	.
.	.	.	.	2E/	san-
=119-	=119-	=119-	=119-	=119-	=119-
*	*	*lig	*	*	*
2FF/	.	1A	.	1F	.
2F/	.	.	.	.	.
2G/	.	1G	.	1C	.
2E/	.	.	.	.	.
*	*	*Xlig	*	*	*
=120-	=120-	=120-	=120-	=120-	=120-
2F/	.	1A	.	2c\	.
*	*	*	*	*custos:e	*
2D/	.	.	.	2d\	.
!	!	!	!	!LO:LB:g=original	!
*	*	*lig	*	*	*
2C/	.	1c	.	1e	.
*custos:BB	*	*	*	*	*
2AA/	.	.	.	.	.
!LO:LB:g=original	!	!	!	!	!
=121-	=121-	=121-	=121-	=121-	=121-
2BB/	.	1G	.	0d	.
2GG/	.	.	.	.	.
*	*	*Xlig	*	*	*
1BB	.	1F	.	.	.
=122-	=122-	=122-	=122-	=122-	=122-
*	*	*lig	*	*	*
2FF/	.	1A	.	1c	.
1F	.	.	.	.	.
*	*	*custos:A	*	*	*
.	.	1G	.	2d\	.
2E/	.	.	.	2e\	.
*	*	*Xlig	*	*	*
!	!	!LO:LB:g=original	!	!	!
=123-	=123-	=123-	=123-	=123-	=123-
*	*	*lig	*	*	*
1D	.	1A	.	1f	.
2C/	.	1c	.	2e\	.
2FF/	.	.	.	1f\	.
*	*	*Xlig	*	*	*
=124-	=124-	=124-	=124-	=124-	=124-
*	*	*lig	*	*	*
1C	.	1G	.	.	.
.	.	.	.	2e\	.
1FF	.	1F	.	1f	.
*	*	*Xlig	*	*	*
=125-	=125-	=125-	=125-	=125-	=125-
*lig	*	*lig	*	*	*
1F	.	1A	.	2c\	.
.	.	.	.	1d	.
1E	.	1G	.	.	.
.	.	.	.	2c\	.
*Xlig	*	*Xlig	*	*	*
=126-	=126-	=126-	=126-	=126-	=126-
*	*	*lig	*	*	*
2D/	.	1A	.	2d\	.
1F	.	.	.	2c\	.
*	*	*	*	*custos:G	*
.	.	1G	.	2B/	.
!	!	!	!	!LO:LB:g=original	!
2E/	.	.	.	2G/	.
*	*	*Xlig	*	*	*
=127-	=127-	=127-	=127-	=127-	=127-
*	*	*lig	*	*	*
1D	.	1F	.	1A	.
*custos:C	*	*	*	*	*
1F	.	1A	.	2D/	.
.	.	.	.	1F/	.
*	*	*Xlig	*	*	*
!LO:LB:g=original	!	!	!	!	!
=128-	=128-	=128-	=128-	=128-	=128-
*	*	*lig	*	*	*
1C	.	1G	.	.	.
.	.	.	.	2E/	.
*lig	*	*	*	*	*
1F	.	1A	.	2D/	.
.	.	.	.	1d\	.
*	*	*Xlig	*	*	*
=129-	=129-	=129-	=129-	=129-	=129-
*	*	*lig	*	*	*
1E	.	1G	.	.	.
.	.	.	.	2c/	.
*Xlig	*	*	*	*	*
1A	.	1D	.	0d	-ctus
*	*	*Xlig	*	*	*
=130-	=130-	=130-	=130-	=130-	=130-
1A	-ctus	1D	-ctvs	.	.
1D	su-	1F	su-	1A	su-
=131-	=131-	=131-	=131-	=131-	=131-
1D	-per	1F	-per	1A	-per
*lig	*	*lig	*	*	*
1D	ue-	1F	ve-	2A/	ve-
.	.	.	.	2B/	.
=132-	=132-	=132-	=132-	=132-	=132-
1C	.	1G	.	1c	.
*Xlig	*	*Xlig	*	*	*
*	*	*custos:A	*	*	*
2AA/	.	1A	.	2e\	.
*	*	*	*	*custos:e	*
2D/	.	.	.	2f\	.
!	!	!LO:LB:g=original	!	!LO:LB:g=original	!
=133-	=133-	=133-	=133-	=133-	=133-
*	*	*clefF4	*	*	*
*	*	*lig	*	*	*
2C/	-ni-	1A	ni-	2e\	-ni-
2D/	.	.	.	1d	.
1E	.	1G	.	.	.
.	.	.	.	1c\	.
*	*	*Xlig	*	*	*
=134-	=134-	=134-	=134-	=134-	=134-
1F	.	0F	.	.	.
.	.	.	.	1A	.
2D/	.	.	.	.	.
*custos:C	*	*	*	*	*
2BB/	.	.	.	2B/	.
!LO:LB:g=original	!	!	!	!	!
=135-	=135-	=135-	=135-	=135-	=135-
*	*	*lig	*	*	*
2C/	.	1E	.	2G/	.
2AA/	.	.	.	1A	.
1BB	.	1D	.	.	.
.	.	.	.	2G/	-et
*	*	*Xlig	*	*	*
=136-	=136-	=136-	=136-	=136-	=136-
1AA	-et	1E	.	1A	.
*	*	*lig	*	*	*
1A	.	1F	-et	1F	.
=137-	=137-	=137-	=137-	=137-	=137-
2B\	in	1D	.	2D/	.
1A	.	.	.	1F	in
*	*	*Xlig	*	*	*
*	*	*lig	*	*	*
.	.	1D	in	.	.
1F\	te	.	.	2F/	.
=138-	=138-	=138-	=138-	=138-	=138-
.	.	1G	.	1C	.
2E/	.	.	.	.	.
*	*	*Xlig	*	*	*
1F	.	1F	te	2D/	te
*	*	*	*	*custos:E	*
.	.	.	.	1F/	.
=139-	=139-	=139-	=139-	=139-	=139-
*	*	*lig	*	*	*
1C	.	1G	.	.	.
!	!	!	!	!LO:PB:g=original	!
.	.	.	.	2E/	.
1D	.	1F	.	2F/	.
.	.	.	.	1A\	.
*	*	*Xlig	*	*	*
=140-	=140-	=140-	=140-	=140-	=140-
*	*	*lig	*	*	*
1F	.	1D	.	.	.
.	.	.	.	2B/	.
*custos:A	*	*	*	*	*
1G	.	1C	.	1c	.
*	*	*Xlig	*	*	*
!LO:LB:g=original	!	!	!	!	!
=141-	=141-	=141-	=141-	=141-	=141-
2A\	.	1F	.	2F/	.
1c	.	.	.	1f	.
*	*	*lig	*	*	*
.	.	1G	.	.	.
2B\	.	.	.	2e\	.
=142-	=142-	=142-	=142-	=142-	=142-
1A	.	1F	.	2d\	.
.	.	.	.	1c	.
*	*	*Xlig	*	*	*
*	*	*lig	*	*	*
2A\	.	1D	.	.	.
2F/	.	.	.	2B/	.
=143-	=143-	=143-	=143-	=143-	=143-
1G	.	1C	.	1c	.
*	*	*Xlig	*	*	*
*	*	*lig	*	*	*
2F/	.	1F	.	1A	.
1D\	.	.	.	.	.
=144-	=144-	=144-	=144-	=144-	=144-
*	*	*	*	*lig	*
.	.	1E	.	1c	.
2C/	.	.	.	.	.
*	*	*Xlig	*	*	*
*	*	*custos:G	*	*	*
1D	.	1D	.	1B	.
*	*	*	*	*Xlig	*
!	!	!LO:PB:g=original	!	!	!
=145-	=145-	=145-	=145-	=145-	=145-
*	*	*	*	*custos:A	*
1E	.	1G	.	1G	.
!	!	!	!	!LO:LB:g=original	!
0D	.	0F	.	1A	.
=146-	=146-	=146-	=146-	=146-	=146-
.	.	.	.	2D/	.
.	.	.	.	1d	.
1AA	.	1E	.	.	.
.	.	.	.	2c/	.
=147-	=147-	=147-	=147-	=147-	=147-
*lig	*	*	*	*	*
1BB	.	1D	.	1B	.
*custos:GG	*	*	*	*	*
1FF	.	1F	.	2A/	.
.	.	.	.	1c\	.
*Xlig	*	*	*	*	*
!LO:PB:g=original	!	!	!	!	!
=148-	=148-	=148-	=148-	=148-	=148-
*	*	*lig	*	*	*
1GG	.	1D	.	.	.
.	.	.	.	2B/	.
1G	.	1C	.	1c	.
*	*	*Xlig	*	*	*
=149-	=149-	=149-	=149-	=149-	=149-
2G/	et	1C	et	1c	et
1E	vir-	.	.	.	.
*	*	*lig	*	*	*
.	.	1E	vir-	2B/	vir-
2C/	.	.	.	2c/	.
=150-	=150-	=150-	=150-	=150-	=150-
1D	.	1F	.	1A	.
*	*	*Xlig	*	*	*
2GG/	-tus	1D	-tus	1B-X	-tus
1BB/	al-	.	.	.	.
=151-	=151-	=151-	=151-	=151-	=151-
.	.	1D	al-	2F/	al-
*	*	*	*	*custos:G	*
2FF/	-tis-	.	.	2A/	.
!	!	!	!	!LO:LB:g=original	!
2GG/	.	1D	-tis-	2G/	-tis-
2BB/	-si-	.	.	2F/	.
=152-	=152-	=152-	=152-	=152-	=152-
1AA	.	1C	.	1A	.
*	*	*custos:F	*	*	*
1GG	.	1D	.	1Bny	.
!	!	!LO:LB:g=original	!	!	!
=153-	=153-	=153-	=153-	=153-	=153-
*	*	*lig	*	*	*
2FF/	.	1F	.	1A	.
1F	.	.	.	.	.
.	.	1G	.	1G	-si-
*custos:D	*	*	*	*	*
2E/	.	.	.	.	.
*	*	*Xlig	*	*	*
!LO:LB:g=original	!	!	!	!	!
=154-	=154-	=154-	=154-	=154-	=154-
2D/	.	1F	-si-	2A/	.
2F/	.	.	.	1d	.
*custos:D	*	*	*	*	*
1E	.	1G	-mi	.	.
.	.	.	.	1c\	.
=155-	=155-	=155-	=155-	=155-	=155-
*clefF3	*	*lig	*	*	*
1D	.	1F	.	.	.
.	.	.	.	2B/	.
2C/	.	1E	.	1c	.
1c\	.	.	.	.	.
*	*	*Xlig	*	*	*
=156-	=156-	=156-	=156-	=156-	=156-
.	.	1F	.	2F/	.
2A/	-mi	.	.	1f	.
*	*	*lig	*	*	*
2B\	.	1G	.	.	.
2G/	.	.	.	2e\	-mi
=157-	=157-	=157-	=157-	=157-	=157-
2A\	.	1F	.	1f	o-
1c	.	.	.	.	.
*	*	*Xlig	*	*	*
*	*	*	*	*custos:e	*
.	.	1G	o-	1d	.
2B\	o-	.	.	.	.
!	!	!	!	!LO:LB:g=original	!
=158-	=158-	=158-	=158-	=158-	=158-
1c	-bum-	1C	-bum-	1e	-bum-
*custos:A	*	*	*	*	*
2B\	-bra-	1D	-bra-	1f	-bra-
!LO:LB:g=original	!	!	!	!	!
*clefF4	*	*	*	*	*
1A\	.	.	.	.	.
=159-	=159-	=159-	=159-	=159-	=159-
.	.	1F	-bil-	1c	-bil-
2F/	.	.	.	.	.
*	*	*lig	*	*	*
1D	-bi-	1F	-li-	1d	-li-
=160-	=160-	=160-	=160-	=160-	=160-
*lig	*	*	*	*	*
1C	-li-	1E	.	2G/	.
.	.	.	.	1c	.
*	*	*Xlig	*	*	*
1D	.	1D	.	.	.
.	.	.	.	2B/	.
*Xlig	*	*	*	*	*
=161-	=161-	=161-	=161-	=161-	=161-
*lig	*	*lig	*	*	*
1F	.	1D	-bi	2A/	-bi
.	.	.	.	2B/	.
1G	.	1C	.	1c	.
*Xlig	*	*Xlig	*	*	*
=162-	=162-	=162-	=162-	=162-	=162-
*lig	*	*lig	*	*	*
1F	.	1D	.	1A	.
*	*	*custos:AA	*	*	*
1G	.	1C	.	0c	.
*Xlig	*	*Xlig	*	*	*
!	!	!LO:LB:g=original	!	!	!
=163-	=163-	=163-	=163-	=163-	=163-
1A	.	1AA	.	.	.
*	*	*lig	*	*	*
2A\	.	1D	.	2d\	.
2F/	.	.	.	1f\	.
=164-	=164-	=164-	=164-	=164-	=164-
1G	.	1C	.	.	.
.	.	.	.	2e\	.
*	*	*	*	*custos:f	*
*	*	*Xlig	*	*	*
!	!	!	!	!LO:LB:g=original	!
*	*	*lig	*	*	*
2F/	-bi	1D	.	2f\	.
1D\	.	.	.	2F/	.
=165-	=165-	=165-	=165-	=165-	=165-
*	*	*	*	*lig	*
.	.	1E	.	1c	.
2C/	.	.	.	.	.
*	*	*Xlig	*	*	*
*custos:F	*	*	*	*	*
1D	.	1F	.	1A	.
*	*	*	*	*Xlig	*
!LO:LB:g=original	!	!	!	!	!
=166-	=166-	=166-	=166-	=166-	=166-
0F;;l	.	0D;<l	.	0A;<l	.
=167||	=167||	=167||	=167||	=167||	=167||
1C	I-	1C	I-	1c	I-
1GG	-de-	1D	-de-	1B	-de-
=168-	=168-	=168-	=168-	=168-	=168-
*lig	*	*	*	*	*
1D	-o-	1F	-o-	2A/	-o-
.	.	.	.	1d	.
1E	.	1G	.	.	.
.	.	.	.	2c/	.
*Xlig	*	*	*	*	*
=169-	=169-	=169-	=169-	=169-	=169-
1F	-q(ue)	1D	-q(ue)	1d	-q(ue)
*lig	*	*	*	*	*
1F	quod	1F	quod	1c	quod
=170-	=170-	=170-	=170-	=170-	=170-
*	*	*	*	*custos:f	*
1D	.	1F	na-	2d\	na-
!	!	!	!	!LO:PB:g=original	!
.	.	.	.	1f	.
*Xlig	*	*lig	*	*	*
1C	na-	1G	.	.	.
.	.	.	.	2e\	.
=171-	=171-	=171-	=171-	=171-	=171-
*	*	*custos:A	*	*	*
2FF/	.	1A	.	1f	.
1F	.	.	.	.	.
*	*	*Xlig	*	*	*
!	!	!LO:LB:g=original	!	!	!
*	*	*lig	*	*	*
.	.	1A	-ſce-	1f	-sce-
2F/	-sce-	.	.	.	.
=172-	=172-	=172-	=172-	=172-	=172-
*custos:D	*	*	*	*	*
1C	.	1G	.	1e	.
*	*	*Xlig	*	*	*
!LO:LB:g=original	!	!	!	!	!
0D	.	0F	.	0d	.
=173-	=173-	=173-	=173-	=173-	=173-
.	.	.	.	.	.
*	*	*lig	*	*	*
1AA	.	1E	.	1c	.
=174-	=174-	=174-	=174-	=174-	=174-
*lig	*	*	*	*	*
1BB	.	1D	.	2f\	.
.	.	.	.	1d	.
*	*	*Xlig	*	*	*
1AA	.	1E	.	.	.
.	.	.	.	2c/	.
*Xlig	*	*	*	*	*
=175-	=175-	=175-	=175-	=175-	=175-
*	*	*lig	*	*	*
1D	-tur	1F	-tur	0d	-tur
2D/	.	1D	.	.	.
2BB,</	.	.	.	.	.
*	*	*Xlig	*	*	*
=176-	=176-	=176-	=176-	=176-	=176-
1D	ex	1F	et	2d\	ex
.	.	.	.	1f	te
1C	te	1G	te	.	.
.	.	.	.	2e\	.
=177-	=177-	=177-	=177-	=177-	=177-
2FF/	san-	1F	san-	1f	san-
1F	.	.	.	.	.
*	*	*lig	*	*	*
*	*	*	*	*custos:e	*
.	.	1G	.	2d/	.
!	!	!	!	!LO:LB:g=original	!
2E/	.	.	.	2e\	.
=178-	=178-	=178-	=178-	=178-	=178-
2F/	.	1F	.	2d\	.
2FF/	.	.	.	1c	.
*	*	*Xlig	*	*	*
*	*	*lig	*	*	*
1GG	.	1D	.	.	.
.	.	.	.	2B/	.
=179-	=179-	=179-	=179-	=179-	=179-
1AA	.	1C	.	1c	.
*	*	*Xlig	*	*	*
*custos:F	*	*	*	*	*
2FF/	.	1F	.	1f	.
!LO:PB:g=original	!	!	!	!	!
1F\	.	.	.	.	.
=180-	=180-	=180-	=180-	=180-	=180-
*	*	*lig	*	*	*
.	.	1G	.	2d\	.
2E/	.	.	.	2e\	.
2F/	.	1F	.	2d\	.
2FF/	.	.	.	1c\	.
*	*	*Xlig	*	*	*
=181-	=181-	=181-	=181-	=181-	=181-
*lig	*	*lig	*	*	*
1GG	.	1D	.	.	.
.	.	.	.	2B/	.
1AA	.	1C	.	1c	-ctvm
*Xlig	*	*Xlig	*	*	*
=182-	=182-	=182-	=182-	=182-	=182-
*lig	*	*	*	*	*
*	*	*custos:E	*	*	*
1BB	.	1F	.	1F	.
!	!	!LO:LB:g=original	!	!	!
*	*	*lig	*	*	*
1GG	.	1E	.	1G	.
*Xlig	*	*	*	*	*
=183-	=183-	=183-	=183-	=183-	=183-
*lig	*	*	*	*	*
1BB	.	1D	.	2F/	.
*	*	*	*	*custos:e	*
.	.	.	.	1f	.
*	*	*Xlig	*	*	*
1C	.	1G	.	.	.
!	!	!	!	!LO:LB:g=original	!
.	.	.	.	2e\	.
*Xlig	*	*	*	*	*
=184-	=184-	=184-	=184-	=184-	=184-
0D	.	0F	.	0d	.
=185-	=185-	=185-	=185-	=185-	=185-
1AA	.	1E	.	1c	.
*lig	*	*	*	*	*
1BB	ctum	1D	.	1d	.
=186-	=186-	=186-	=186-	=186-	=186-
1GG	.	1D	-ctum	1B	.
*Xlig	*	*	*	*	*
*lig	*	*lig	*	*	*
1FF	.	1F	.	2A/	.
.	.	.	.	1c\	.
=187-	=187-	=187-	=187-	=187-	=187-
1GG	.	1D	.	.	.
.	.	.	.	2B/	.
*Xlig	*	*Xlig	*	*	*
*custos:F	*	*	*	*	*
1G	vo-	1C	.	1c	ctum
!LO:LB:g=original	!	!	!	!	!
=188-	=188-	=188-	=188-	=188-	=188-
1F	-ca-	1D	vo-	1A	vo-
1F	.	1D	-ca-	1d	-ca-
=189-	=189-	=189-	=189-	=189-	=189-
1G	.	1C	.	1e	.
1F	.	1D	.	1d	.
=190-	=190-	=190-	=190-	=190-	=190-
*	*	*lig	*	*	*
2F/	bi-	1F	.	2A/	.
*	*	*	*	*custos:c	*
2D/	.	.	.	2B/	.
!	!	!	!	!LO:LB:g=original	!
1C	.	1G	.	1c	.
*	*	*Xlig	*	*	*
=191-	=191-	=191-	=191-	=191-	=191-
*lig	*	*	*	*	*
*	*	*custos:G	*	*	*
1D	.	1F	-bi-	2F/	-bi-
.	.	.	.	1f	.
!	!	!LO:PB:g=original	!	!	!
*	*	*clefF3	*	*	*
1C	.	1G	.	.	.
.	.	.	.	2e\	.
*Xlig	*	*	*	*	*
=192-	=192-	=192-	=192-	=192-	=192-
*	*	*lig	*	*	*
2D/	.	1F	-tvr	1d	.
2BB/	.	.	.	.	.
1C	-tur	1E	.	1c	.
*	*	*Xlig	*	*	*
=193-	=193-	=193-	=193-	=193-	=193-
*lig	*	*lig	*	*	*
1GG	.	1G	.	1d	.
1FF	.	1A	.	1f	-tur
*Xlig	*	*Xlig	*	*	*
=194-	=194-	=194-	=194-	=194-	=194-
1C	.	1c	.	2e\	.
.	.	.	.	2c/	.
*	*	*lig	*	*	*
2BB/	.	1G	.	2d\	.
*custos:D	*	*	*	*	*
2C/	.	.	.	2e\	.
!LO:LB:g=original	!	!	!	!	!
=195-	=195-	=195-	=195-	=195-	=195-
1D	.	1F	.	1f	.
*	*	*Xlig	*	*	*
*	*	*lig	*	*lig	*
1D	.	1F	fi-	1f	fi-
=196-	=196-	=196-	=196-	=196-	=196-
1C	.	1G	.	1e	.
*	*	*Xlig	*	*Xlig	*
*	*	*lig	*	*	*
*	*	*	*	*custos:c	*
2FF/	fi-	1F	.	2d\	.
!	!	!	!	!LO:LB:g=original	!
1F\	.	.	.	1c\	.
=197-	=197-	=197-	=197-	=197-	=197-
.	.	1C	.	.	.
2E/	.	.	.	2c/	.
*	*	*Xlig	*	*	*
*	*	*lig	*	*	*
1F	.	1D	-li-	1A	-li-
=198-	=198-	=198-	=198-	=198-	=198-
1A	-li-	1F	.	2A/	.
.	.	.	.	1d	-vs
*	*	*Xlig	*	*	*
1B	-us	1D	.	.	.
.	.	.	.	2d/	.
=199-	=199-	=199-	=199-	=199-	=199-
*	*	*lig	*	*	*
1G	.	1E	-us	1c	.
2A\	.	1F	.	2c/	de-
2B\	.	.	.	1f\	.
*	*	*Xlig	*	*	*
=200-	=200-	=200-	=200-	=200-	=200-
*	*	*lig	*	*	*
2c\	.	1G	de-	.	.
2C/	.	.	.	2e\	.
*lig	*	*	*	*	*
*	*	*custos:G	*	*	*
1D	de-	1F	.	2d\	.
.	.	.	.	2B/	.
*	*	*Xlig	*	*	*
!	!	!LO:LB:g=original	!	!	!
=201-	=201-	=201-	=201-	=201-	=201-
*	*	*clefF4	*	*	*
1C	.	1G	.	1c	.
*Xlig	*	*	*	*	*
*custos:GG	*	*	*	*	*
*	*	*lig	*	*	*
1D	.	1F	.	1A	.
!LO:LB:g=original	!	!	!	!	!
=202-	=202-	=202-	=202-	=202-	=202-
1GG	.	1D	.	1B	.
*	*	*Xlig	*	*	*
*	*	*	*	*custos:A	*
0D	.	0F	.	1A	.
!	!	!	!	!LO:PB:g=original	!
=203-	=203-	=203-	=203-	=203-	=203-
.	.	.	.	1A	-j
*lig	*	*lig	*	*	*
1AA	.	1A	.	1c	.
=204-	=204-	=204-	=204-	=204-	=204-
1BB	.	1G	.	1d	.
*Xlig	*	*Xlig	*	*	*
*	*	*lig	*	*	*
2FF/	.	1A	.	1c	.
1F\	.	.	.	.	.
=205-	=205-	=205-	=205-	=205-	=205-
.	.	1F	.	2c/	.
2D/	.	.	.	1d	.
*	*	*Xlig	*	*	*
1E	.	1E	.	.	.
.	.	.	.	2c/	.
=206-	=206-	=206-	=206-	=206-	=206-
1F	.	1D	.	1d	.
*	*	*lig	*	*	*
2D/	.	1D	-i	1d	.
2BB/	-i	.	.	.	.
=207-	=207-	=207-	=207-	=207-	=207-
2C/	.	1C	.	2e\	.
2AA/	.	.	.	1c	.
*	*	*Xlig	*	*	*
1GG	.	1D	.	.	.
.	.	.	.	2B/	.
=208-	=208-	=208-	=208-	=208-	=208-
0FF	.	0F	.	0c	.
=209-	=209-	=209-	=209-	=209-	=209-
*lig	*	*lig	*	*	*
*	*	*	*	*custos:f	*
1FF	.	1A	.	2c/	.
!	!	!	!	!LO:LB:g=original	!
.	.	.	.	1f	.
1C	.	1G	.	.	.
.	.	.	.	2e\	.
*Xlig	*	*Xlig	*	*	*
=210-	=210-	=210-	=210-	=210-	=210-
0FF	.	0F	.	0c	.
=211-	=211-	=211-	=211-	=211-	=211-
*lig	*	*lig	*	*	*
1FF	.	1A	.	2c/	.
.	.	.	.	1f	.
*custos:D	*	*	*	*	*
1C	.	1G	.	.	.
.	.	.	.	2e\	.
*Xlig	*	*Xlig	*	*	*
!LO:LB:g=original	!	!	!	!	!
=212-	=212-	=212-	=212-	=212-	=212-
*	*	*custos:E	*	*	*
1D	.	0F	.	1f	.
2D/	.	.	.	2f\	.
2BB/	.	.	.	2d\	.
!	!	!LO:LB:g=original	!	!	!
=213-	=213-	=213-	=213-	=213-	=213-
2C/	.	1E	.	2e\	.
2AA/	.	.	.	2c/	.
2BB/	.	0D	.	0d	.
2GG/	.	.	.	.	.
=214-	=214-	=214-	=214-	=214-	=214-
1BB	.	.	.	.	.
1AA	.	1E	.	1c	.
=215-	=215-	=215-	=215-	=215-	=215-
1D	.	1F	.	1.A	.
2D/	.	[1D;;l	.	.	.
1BB/	.	.	.	1.B	.
=216-	=216-	=216-	=216-	=216-	=216-
.	.	0D]	.	.	.
2GG/	.	.	.	.	.
1D;;l	.	.	.	1A;;l	.
==	==	==	==	==	==
*-	*-	*-	*-	*-	*-
!!!system-decoration: [(s1,s2,s3)]
!!!RDF**kern: < = below
!!!RDF**kern: l = terminal long
!!!ENC: Filip Voros
!!!END: 2022-01-03
!!!ENC: Marta Lawrence
!!!END: 2022-01-06
!!!YEC: Copyright 2022 Narodowy Instytut Fryderyka Chopina (https://polishscores.org)
!!!YEM: License CC-BY-4.0 (https://creativecommons.org/licenses/by/4.0)
